; generated by SuperSlicer 2.4 on 2023-11-30 at 13:53:50 UTC

; 

; external perimeters extrusion width = 0.42mm
; perimeters extrusion width = 0.46mm
; infill extrusion width = 0.44mm
; solid infill extrusion width = 0.46mm
; top infill extrusion width = 0.44mm
; first layer extrusion width = 0.56mm

; object:{"name":"christmas-tree-v5","id":"christmas-tree-v5.stl id:0 copy 0","object_center":[110.000000,100.000000,0.000000],"boundingbox_center":[110.000000,100.000000,1.000000],"boundingbox_size":[118.000000,187.750000,2.000000]}
; Total objects to print: 1
M486 T1
; plater:{"center":[110.000000,100.000000,0.000000],"boundingbox_center":[110.000000,100.000000,1.000000],"boundingbox_size":[118.000000,187.750000,2.000000]}

;TYPE:Custom
G90 ; use absolute coordinates
M83 ; extruder relative mode
M140 S70 ; set final bed temp
M104 S150 ; set temporary nozzle temp to prevent oozing during homing and auto bed leveling
G4 S10 ; allow partial nozzle warmup
G28 ; home all axis
G92 X-5.0 Y-10.0 ; set home offsets from direct drive
G1 Z50 F240
G1 X2 Y10 F3000
M104 S220 ; set final nozzle temp
M190 S70 ; wait for bed temp to stabilize
M109 S220 ; wait for nozzle temp to stabilize
G1 Z0.28 F240
G92 E0
G1 Y140 E10 F1500 ; prime the nozzle
G1 X2.3 F5000
G92 E0
G1 Y10 E10 F1200 ; prime the nozzle
G92 E0
M107
G21 ; set units to millimeters
G90 ; use absolute coordinates
M82 ; use absolute distances for extrusion
G92 E0
; Filament gcode
;_TOOLCHANGE 0
M107
;LAYER_CHANGE
;Z:0.2
;HEIGHT:0.2
;BEFORE_LAYER_CHANGE
;0.2


G1 E-1 F2100
G1 Z0.2 F9000
;AFTER_LAYER_CHANGE
;0.2
G92 E0
M204 S500
G1 X47.901 Y7.025
G1 E1 F2400
;TYPE:Skirt
;WIDTH:0.48
G1 F1200
G1 X47.781 Y8.125 E1.04023
G1 X47.781 Y191.875 E7.71831
G1 X47.854 Y192.729 E7.74945
G1 X48.002 Y193.367 E7.77327
G1 X48.53 Y194.563 E7.82078
G1 X49.339 Y195.59 E7.8683
G1 X50.378 Y196.384 E7.91582
G1 X51.058 Y196.713 E7.94328
G1 X51.9 Y196.974 E7.9753
G1 X53 Y197.094 E8.01553
G1 X167 Y197.094 E12.15867
G1 X167.854 Y197.021 E12.1898
G1 X168.492 Y196.873 E12.21362
G1 X169.688 Y196.345 E12.26113
G1 X170.715 Y195.536 E12.30865
G1 X171.145 Y195.042 E12.33246
G1 X171.556 Y194.408 E12.35992
G1 X171.998 Y193.367 E12.40101
G1 X172.146 Y192.729 E12.42483
G1 X172.219 Y191.875 E12.45596
G1 X172.219 Y8.125 E19.13405
G1 X172.055 Y6.852 E19.18068
G1 X171.727 Y5.928 E19.21634
G1 X171.232 Y5.081 E19.252
G1 X170.586 Y4.342 E19.28766
G1 X169.814 Y3.737 E19.32332
G1 X168.942 Y3.287 E19.35898
G1 X168.001 Y3.009 E19.39464
G1 X167.126 Y2.91 E19.42665
G1 X53 Y2.906 E23.57435
G1 X52.146 Y2.979 E23.6055
G1 X51.508 Y3.127 E23.62931
G1 X50.312 Y3.655 E23.67682
G1 X49.285 Y4.464 E23.72434
G1 X48.491 Y5.503 E23.77186
G1 X48.162 Y6.183 E23.79932
G1 X47.919 Y6.967 E23.82916
G92 E0
G1 E-0.7 F2100
;WIPE_START
G1 F7200
G1 X47.798 Y7.989 E-0.985
;WIPE_END
G1 E-1 F2100
; printing object christmas-tree-v5.stl id:0 copy 0
M486 S0
; acceleration to travel
M204 S1500
G1 X105.29 Y125.367 F9000
; decel to extrusion
M204 S500
G1 X112.314 Y139.707
; end travel
G1 E0 F2400
;TYPE:Internal perimeter
;WIDTH:0.564
G1 F1200
G1 X110.071 Y138.655 E0.10735
G1 X108.365 Y138.657 E0.18124
G1 X107.941 Y138.669 E0.19966
G1 X108.263 Y137.824 E0.23883
G1 X100.41 Y134.126 E0.61493
G1 X111.198 Y126.609 E1.18462
G1 X105.67 Y114.682 E1.75421
G1 X118.763 Y115.857 E2.3238
G1 X122.194 Y103.167 E2.89339
G1 X131.469 Y112.484 E3.46297
G1 X142.254 Y104.968 E4.03256
G1 X143.37 Y118.067 E4.60215
G1 X156.463 Y119.242 E5.17173
G1 X148.898 Y129.995 E5.74137
G1 X150.437 Y131.535 E5.83571
G1 X151.193 Y131.515 E5.86849
G1 X150.99 Y132.004 E5.89145
G1 X152.035 Y133.141 E5.95837
G1 X158.173 Y139.31 E6.33544
G1 X145.467 Y142.684 E6.90505
G1 X146.583 Y155.782 E7.47463
G1 X134.682 Y150.2 E8.04422
G1 X127.117 Y160.951 E8.61381
G1 X121.588 Y149.024 E9.18339
G1 X108.883 Y152.397 E9.75298
G1 X112.298 Y139.765 E10.31997
G92 E0
G1 E-0.7 F2100
;WIPE_START
G1 F7200
G1 X111.378 Y139.306 E-0.985
;WIPE_END
G1 E-1 F2100
; acceleration to travel
M204 S1500
G1 X149.221 Y96.992 F9000
; decel to extrusion
M204 S500
G1 X153.844 Y91.822
; end travel
G1 E0 F2400
G1 F1200
G1 X153.926 Y92.134 E0.01395
G1 X152.479 Y92.945 E0.0858
G1 X152.493 Y91.822 E0.13443
G1 X153.784 Y91.822 E0.19037
G92 E0
G1 E-0.7 F2100
;WIPE_START
G1 F7200
G1 X153.926 Y92.134 E-0.79479
G1 X153.327 Y92.47 E-0.985
;WIPE_END
G1 E-1 F2100
; acceleration to travel
M204 S1500
G1 X152.191 Y89.964 F9000
; decel to extrusion
M204 S500
G1 X152.053 Y89.658
; end travel
G1 E0 F2400
G1 F1200
G1 X150.409 Y88.142 E0.09686
G1 X152.053 Y87.635 E0.17137
G1 X152.053 Y89.598 E0.25643
G92 E0
G1 E-0.7 F2100
;WIPE_START
G1 F7200
G1 X151.283 Y88.916 E-0.985
;WIPE_END
G1 E-1 F2100
; acceleration to travel
M204 S1500
G1 X153.3 Y86.698 F9000
; decel to extrusion
M204 S500
G1 X153.546 Y86.428
; end travel
G1 E0 F2400
G1 F1200
G1 X154.342 Y84.7 E0.08241
G1 X155.564 Y86.428 E0.17409
G1 X153.606 Y86.428 E0.25891
G92 E0
G1 E-0.7 F2100
;WIPE_START
G1 F7200
G1 X154.009 Y85.481 E-0.985
;WIPE_END
G1 E-1 F2100
; acceleration to travel
M204 S1500
G1 X157.073 Y88.397 F9000
; decel to extrusion
M204 S500
G1 X157.447 Y88.754
; end travel
G1 E0 F2400
G1 F1200
G1 X157.447 Y87.206 E0.06705
G1 X158.869 Y87.374 E0.12908
G1 X158.397 Y88.054 E0.16495
G1 X158.586 Y88.43 E0.18317
G1 X158.063 Y88.409 E0.20583
G1 X157.732 Y88.849 E0.22967
G1 X157.504 Y88.773 E0.24008
G92 E0
G1 E-0.7 F2100
;WIPE_START
G1 F7200
G1 X157.467 Y87.745 E-0.985
;WIPE_END
G1 E-1 F2100
; acceleration to travel
M204 S1500
G1 X156.742 Y90.671 F9000
; decel to extrusion
M204 S500
G1 X156.653 Y91.028
; end travel
G1 E0 F2400
G1 F1200
G1 X157.395 Y91.028 E0.03214
G1 X157.681 Y92.465 E0.09563
G1 X156.653 Y92.117 E0.14266
G1 X156.653 Y91.088 E0.18722
G92 E0
G1 E-0.7 F2100
;WIPE_START
G1 F7200
G1 X157.395 Y91.028 E-0.9062
G1 X157.45 Y91.307 E-0.985
;WIPE_END
G1 E-1 F2100
; acceleration to travel
M204 S1500
G1 X153.365 Y70.975 F9000
; decel to extrusion
M204 S500
G1 X152.866 Y68.491
; end travel
G1 E0 F2400
G1 F1200
G1 X151.268 Y74.454 E0.26751
G1 X146.902 Y70.089 E0.53502
G1 X140.938 Y71.687 E0.80253
G1 X142.536 Y65.723 E1.07006
G1 X140.228 Y63.418 E1.21138
G1 X139.466 Y63.431 E1.24443
G1 X139.664 Y62.954 E1.26682
G1 X138.988 Y62.195 E1.31082
G1 X138.162 Y61.36 E1.36174
G1 X144.134 Y59.759 E1.62964
G1 X145.732 Y53.796 E1.89715
G1 X150.098 Y58.161 E2.16466
G1 X156.062 Y56.563 E2.43217
G1 X154.464 Y62.527 E2.6997
G1 X156.289 Y64.35 E2.81145
G1 X156.372 Y64.315 E2.81537
G1 X157.231 Y65.274 E2.87113
G1 X158.835 Y66.891 E2.96984
G1 X152.924 Y68.475 E3.23502
G92 E0
G1 E-0.7 F2100
;WIPE_START
G1 F7200
G1 X152.649 Y69.466 E-0.985
;WIPE_END
G1 E-1 F2100
; acceleration to travel
M204 S1500
G1 X138.617 Y38.621 F9000
; decel to extrusion
M204 S500
G1 X136.903 Y34.853
; end travel
G1 E0 F2400
G1 F1200
G1 X140.111 Y34.853 E0.13897
G1 X140.126 Y35.506 E0.16726
G1 X140.203 Y36.223 E0.19853
G1 X139.012 Y36.277 E0.25018
G1 X136.903 Y36.395 E0.34172
G1 X136.903 Y34.913 E0.40593
G92 E0
G1 E-0.7 F2100
;WIPE_START
G1 F7200
G1 X137.931 Y34.894 E-0.985
;WIPE_END
G1 E-1 F2100
; acceleration to travel
M204 S1500
G1 X141.384 Y30.175 F9000
; decel to extrusion
M204 S500
G1 X141.806 Y29.599
; end travel
G1 E0 F2400
G1 F1200
G1 X142.127 Y29.631 E0.01398
G1 X143.634 Y29.719 E0.0794
G1 X144.661 Y29.763 E0.12392
G1 X145.195 Y29.747 E0.1471
G1 X145.133 Y30.212 E0.16744
G1 X145.096 Y30.884 E0.19662
G1 X141.889 Y30.884 E0.33554
G1 X141.874 Y30.232 E0.36383
G1 X141.812 Y29.658 E0.38882
G92 E0
G1 E-0.7 F2100
;WIPE_START
G1 F7200
G1 X142.127 Y29.631 E-0.78751
G1 X142.838 Y29.673 E-0.985
;WIPE_END
G1 E-1 F2100
; acceleration to travel
M204 S1500
G1 X92.993 Y22.619 F9000
; decel to extrusion
M204 S500
G1 X86.903 Y21.758
; end travel
G1 E0 F2400
G1 F1200
G1 X86.903 Y18.828 E0.12692
G1 X110.369 Y17.515 E1.14524
G1 X111.38 Y17.444 E1.18914
G1 X112.456 Y17.329 E1.23602
G1 X113.521 Y17.324 E1.28217
G1 X114.536 Y17.281 E1.3262
G1 X153.847 Y15.08 E3.03213
G1 X153.847 Y19.195 E3.21041
G1 X160.121 Y19.195 E3.48223
G1 X160.155 Y20.375 E3.5334
G1 X160.121 Y21.555 E3.58456
G1 X153.847 Y21.555 E3.85638
G1 X153.847 Y25.67 E4.03467
G1 X114.536 Y23.469 E5.7406
G1 X113.521 Y23.426 E5.78463
G1 X112.456 Y23.421 E5.83077
G1 X111.38 Y23.306 E5.87766
G1 X110.369 Y23.235 E5.92156
G1 X86.903 Y21.922 E6.93988
G1 X86.903 Y21.818 E6.94438
G92 E0
G1 E-0.7 F2100
;WIPE_START
G1 F7200
G1 X86.903 Y20.789 E-0.985
;WIPE_END
G1 E-1 F2100
; acceleration to travel
M204 S1500
G1 X109.416 Y28.054 F9000
; decel to extrusion
M204 S500
G1 X112.166 Y28.942
; end travel
G1 E0 F2400
G1 F1200
G1 X111.329 Y28.899 E0.0363
G1 X110.315 Y28.885 E0.08024
G1 X80.097 Y28.884 E1.38955
G1 X80.097 Y30.884 E1.4762
G1 X76.903 Y30.884 E1.61458
G1 X76.903 Y28.884 E1.70125
G1 X68.48 Y28.889 E2.06622
G1 X68.032 Y28.911 E2.08566
G1 X68.116 Y28.323 E2.1114
G1 X68.148 Y27.803 E2.13396
G1 X68.152 Y25.492 E2.23407
G1 X110.27 Y27.851 E4.06184
G1 X111.281 Y27.893 E4.10569
G1 X112.344 Y27.899 E4.15173
G1 X113.419 Y28.013 E4.19859
G1 X114.428 Y28.084 E4.24242
G1 X121.495 Y28.48 E4.54909
G1 X121.484 Y28.885 E4.56665
G1 X114.494 Y28.885 E4.8695
G1 X113.474 Y28.899 E4.91371
G1 X112.399 Y28.954 E4.96037
G1 X112.226 Y28.945 E4.96785
G92 E0
G1 E-0.7 F2100
;WIPE_START
G1 F7200
G1 X111.329 Y28.899 E-0.94876
G1 X111.199 Y28.897 E-0.985
;WIPE_END
G1 E-1 F2100
; acceleration to travel
M204 S1500
G1 X112.268 Y35.925 F9000
; decel to extrusion
M204 S500
G1 X112.398 Y36.784
; end travel
G1 E0 F2400
G1 F1200
G1 X113.474 Y36.839 E0.04667
G1 X114.494 Y36.853 E0.09088
G1 X121.478 Y36.853 E0.39347
G1 X121.489 Y37.258 E0.41103
G1 X68.152 Y40.245 E2.72566
G1 X68.148 Y37.934 E2.82577
G1 X68.116 Y37.415 E2.84833
G1 X68.031 Y36.826 E2.87413
G1 X68.989 Y36.853 E2.91561
G1 X81.903 Y36.853 E3.47517
G1 X81.903 Y34.853 E3.56183
G1 X85.097 Y34.853 E3.70021
G1 X85.097 Y36.853 E3.78687
G1 X110.317 Y36.853 E4.87961
G1 X111.33 Y36.839 E4.9235
G1 X112.338 Y36.787 E4.96725
G92 E0
G1 E-0.7 F2100
;WIPE_START
G1 F7200
G1 X113.366 Y36.834 E-0.985
;WIPE_END
G1 E-1 F2100
; acceleration to travel
M204 S1500
G1 X68.29 Y22.288 F9000
; decel to extrusion
M204 S500
G1 X62.783 Y20.511
; end travel
G1 E0 F2400
G1 F1200
G1 X62.783 Y20.178 E0.01442
G1 X74.189 Y19.538 E0.50939
G1 X74.717 Y19.494 E0.53236
G1 X75.183 Y19.428 E0.55275
G1 X75.133 Y19.804 E0.56917
G1 X75.107 Y20.375 E0.59394
G1 X75.133 Y20.946 E0.61872
G1 X75.183 Y21.322 E0.63514
G1 X74.717 Y21.256 E0.65553
G1 X74.189 Y21.212 E0.6785
G1 X62.783 Y20.571 E1.17347
G92 E0
G1 E-0.7 F2100
;WIPE_START
G1 F7200
G1 X62.783 Y20.178 E-0.80883
G1 X63.417 Y20.142 E-0.985
;WIPE_END
G1 E-1 F2100
; acceleration to travel
M204 S1500
G1 X120.832 Y114.232 F9000
; decel to extrusion
M204 S500
G1 X127.847 Y125.728
; end travel
G1 E0 F2400
G1 F1200
G1 X127.847 Y129.722 E0.17307
G1 X123.853 Y129.722 E0.34614
G1 X123.853 Y133.528 E0.51105
G1 X127.847 Y133.528 E0.68412
G1 X127.847 Y137.522 E0.85719
G1 X131.653 Y137.522 E1.0221
G1 X131.653 Y133.528 E1.19517
G1 X135.647 Y133.528 E1.36824
G1 X135.647 Y129.722 E1.53315
G1 X131.653 Y129.722 E1.70622
G1 X131.653 Y125.728 E1.87929
G1 X127.907 Y125.728 E2.04161
G92 E0
G1 E-0.7 F2100
;WIPE_START
G1 F7200
G1 X127.891 Y126.756 E-0.985
;WIPE_END
G1 E-1 F2100
; acceleration to travel
M204 S1500
G1 X88.821 Y127.221 F9000
; decel to extrusion
M204 S500
G1 X84.047 Y127.278
; end travel
G1 E0 F2400
G1 F1200
G1 X84.047 Y123.472 E0.16491
G1 X81.653 Y123.472 E0.26866
G1 X81.653 Y121.078 E0.3724
G1 X77.847 Y121.078 E0.53731
G1 X77.847 Y123.472 E0.64106
G1 X75.453 Y123.472 E0.7448
G1 X75.453 Y127.278 E0.90972
G1 X77.847 Y127.278 E1.01346
G1 X77.847 Y129.672 E1.11721
G1 X81.653 Y129.672 E1.28212
G1 X81.653 Y127.278 E1.38586
G1 X83.987 Y127.278 E1.48701
G92 E0
G1 E-0.7 F2100
;WIPE_START
G1 F7200
G1 X84.004 Y126.25 E-0.985
;WIPE_END
G1 E-1 F2100
; acceleration to travel
M204 S1500
G1 X84.087 Y154.345 F9000
; decel to extrusion
M204 S500
G1 X84.097 Y157.778
; end travel
G1 E0 F2400
G1 F1200
G1 X84.097 Y160.972 E0.13841
G1 X80.903 Y160.972 E0.27681
G1 X80.903 Y164.778 E0.44173
G1 X84.097 Y164.778 E0.58013
G1 X84.097 Y167.972 E0.71854
G1 X87.903 Y167.972 E0.88345
G1 X87.903 Y164.778 E1.02186
G1 X91.097 Y164.778 E1.16027
G1 X91.097 Y160.972 E1.32518
G1 X87.903 Y160.972 E1.46359
G1 X87.903 Y157.778 E1.60199
G1 X84.157 Y157.778 E1.76431
G92 E0
G1 E-0.7 F2100
;WIPE_START
G1 F7200
G1 X84.138 Y158.806 E-0.985
;WIPE_END
G1 E-1 F2100
; acceleration to travel
M204 S1500
G1 X102.905 Y83.876 F9000
; decel to extrusion
M204 S500
G1 X105.197 Y74.722
; end travel
G1 E0 F2400
G1 F1200
G1 X100.403 Y74.722 E0.20773
G1 X100.403 Y69.928 E0.41546
G1 X96.597 Y69.928 E0.58038
G1 X96.597 Y74.722 E0.78811
G1 X91.803 Y74.722 E0.99584
G1 X91.803 Y78.528 E1.16075
G1 X96.597 Y78.528 E1.36848
G1 X96.597 Y83.322 E1.57622
G1 X100.403 Y83.322 E1.74113
G1 X100.403 Y78.528 E1.94886
G1 X105.197 Y78.528 E2.15659
G1 X105.197 Y74.782 E2.31891
G92 E0
G1 E-0.7 F2100
;WIPE_START
G1 F7200
G1 X104.169 Y74.769 E-0.985
;WIPE_END
G1 E-1 F2100
; acceleration to travel
M204 S1500
G1 X145.37 Y68.401 F9000
; decel to extrusion
M204 S500
G1 X150.403 Y67.622
; end travel
G1 E0 F2400
G1 F1200
G1 X150.403 Y66.028 E0.06908
G1 X151.997 Y66.028 E0.13816
G1 X151.997 Y62.222 E0.30308
G1 X150.403 Y62.222 E0.37216
G1 X150.403 Y60.628 E0.44124
G1 X146.597 Y60.628 E0.60615
G1 X146.597 Y62.222 E0.67524
G1 X145.003 Y62.222 E0.74432
G1 X145.003 Y66.028 E0.90923
G1 X146.597 Y66.028 E0.97831
G1 X146.597 Y67.622 E1.0474
G1 X150.343 Y67.622 E1.20971
G92 E0
G1 E-0.7 F2100
;WIPE_START
G1 F7200
G1 X150.382 Y66.595 E-0.985
;WIPE_END
G1 E-1 F2100
; acceleration to travel
M204 S1500
G1 X136.761 Y23.711 F9000
; decel to extrusion
M204 S500
G1 X135.097 Y18.472
; end travel
G1 E0 F2400
G1 F1200
G1 X135.097 Y22.278 E0.16491
G1 X146.903 Y22.278 E0.67645
G1 X146.903 Y18.472 E0.84136
G1 X135.157 Y18.472 E1.3503
G92 E0
G1 E-0.7 F2100
;WIPE_START
G1 F7200
G1 X135.141 Y19.5 E-0.985
;WIPE_END
G1 E-1 F2100
; acceleration to travel
M204 S1500
G1 X162.503 Y20.488 F9000
; decel to extrusion
M204 S500
G1 X165.846 Y20.609
; end travel
G1 E0 F2400
G1 F1200
G1 X165.833 Y20.367 E0.0105
G1 X165.889 Y19.324 E0.05574
G1 X165.903 Y18.347 E0.0981
G1 X165.903 Y12.082 E0.36951
G1 X165.856 Y11.58 E0.39137
G1 X165.707 Y11.069 E0.41445
G1 X165.546 Y10.726 E0.43088
G1 X165.35 Y10.418 E0.44669
G1 X165.108 Y10.125 E0.46311
G1 X164.72 Y9.783 E0.48558
G1 X164.399 Y9.579 E0.502
G1 X164.056 Y9.418 E0.51843
G1 X163.545 Y9.269 E0.54151
G1 X163.043 Y9.222 E0.56337
G1 X114.999 Y9.222 E2.645
G1 X113.984 Y9.224 E2.68898
G1 X112.326 Y9.287 E2.76088
G1 X111.328 Y9.236 E2.80416
G1 X110.311 Y9.222 E2.84823
G1 X56.957 Y9.222 E5.15993
G1 X56.455 Y9.269 E5.18179
G1 X55.944 Y9.418 E5.20487
G1 X55.588 Y9.586 E5.22192
G1 X55.147 Y9.885 E5.24501
G1 X54.76 Y10.272 E5.26871
G1 X54.452 Y10.724 E5.29242
G1 X54.235 Y11.227 E5.31613
G1 X54.119 Y11.747 E5.33922
G1 X54.097 Y12.097 E5.35441
G1 X54.097 Y27.255 E6.01118
G1 X54.132 Y28.285 E6.05583
G1 X54.264 Y29.252 E6.09813
G1 X54.133 Y30.182 E6.13882
G1 X54.102 Y30.71 E6.16173
G1 X54.097 Y31.682 E6.20386
G1 X54.102 Y35.026 E6.34875
G1 X54.133 Y35.556 E6.37173
G1 X54.264 Y36.482 E6.41229
G1 X54.132 Y37.461 E6.45506
G1 X54.097 Y38.504 E6.5003
G1 X54.097 Y74.146 E8.0446
G1 X54.111 Y75.157 E8.08837
G1 X54.163 Y76.151 E8.13153
G1 X54.099 Y77.799 E8.20298
G1 X54.097 Y78.805 E8.24656
G1 X54.097 Y122.895 E10.15688
G1 X54.111 Y123.906 E10.2007
G1 X54.162 Y124.901 E10.24385
G1 X54.099 Y126.553 E10.31551
G1 X54.097 Y127.563 E10.35925
G1 X54.097 Y160.389 E11.78154
G1 X54.111 Y161.404 E11.82552
G1 X54.166 Y162.476 E11.87201
G1 X54.111 Y163.545 E11.9184
G1 X54.097 Y164.557 E11.96228
G1 X54.097 Y187.903 E12.97381
G1 X54.118 Y188.239 E12.98839
G1 X54.186 Y188.597 E13.00419
G1 X54.299 Y188.944 E13.02
G1 X54.454 Y189.274 E13.0358
G1 X54.65 Y189.582 E13.05161
G1 X54.892 Y189.874 E13.06803
G1 X55.281 Y190.217 E13.0905
G1 X55.601 Y190.421 E13.10693
G1 X55.931 Y190.576 E13.12273
G1 X56.278 Y190.689 E13.13854
G1 X56.636 Y190.757 E13.15434
G1 X56.972 Y190.778 E13.16892
G1 X103.903 Y190.778 E15.20236
G1 X103.903 Y181.918 E15.58627
G1 X103.926 Y181.672 E15.59694
G1 X104.012 Y181.408 E15.609
