; generated by SuperSlicer 2.4 on 2023-11-26 at 19:12:54 UTC

; 

; external perimeters extrusion width = 0.42mm
; perimeters extrusion width = 0.46mm
; infill extrusion width = 0.44mm
; solid infill extrusion width = 0.46mm
; top infill extrusion width = 0.44mm
; first layer extrusion width = 0.56mm

; object:{"name":"christmas-tree-v2","id":"christmas-tree-v2.stl id:0 copy 0","object_center":[110.000000,110.000000,0.000000],"boundingbox_center":[110.000000,110.000000,1.000000],"boundingbox_size":[128.000000,205.125000,2.000000]}
; Total objects to print: 1
M486 T1
; plater:{"center":[110.000000,110.000000,0.000000],"boundingbox_center":[110.000000,110.000000,1.000000],"boundingbox_size":[128.000000,205.125000,2.000000]}

;TYPE:Custom
G90 ; use absolute coordinates
M83 ; extruder relative mode
M140 S70 ; set final bed temp
M104 S150 ; set temporary nozzle temp to prevent oozing during homing and auto bed leveling
G4 S10 ; allow partial nozzle warmup
G28 ; home all axis
G92 X-5.0 Y-10.0 ; set home offsets from direct drive
G1 Z50 F240
G1 X2 Y10 F3000
M104 S220 ; set final nozzle temp
M190 S70 ; wait for bed temp to stabilize
M109 S220 ; wait for nozzle temp to stabilize
G1 Z0.28 F240
G92 E0
G1 Y140 E10 F1500 ; prime the nozzle
G1 X2.3 F5000
G92 E0
G1 Y10 E10 F1200 ; prime the nozzle
G92 E0
M107
G21 ; set units to millimeters
G90 ; use absolute coordinates
M82 ; use absolute distances for extrusion
G92 E0
; Filament gcode
;_TOOLCHANGE 0
M107
;LAYER_CHANGE
;Z:0.2
;HEIGHT:0.2
;BEFORE_LAYER_CHANGE
;0.2


G1 E-1 F2100
G1 Z0.2 F9000
;AFTER_LAYER_CHANGE
;0.2
G92 E0
M204 S500
G1 X42.919 Y8.316
G1 E1 F2400
;TYPE:Skirt
;WIDTH:0.48
G1 F1200
G1 X42.781 Y9.438 E1.04107
G1 X42.781 Y210.562 E8.35062
G1 X42.919 Y211.684 E8.39169
G1 X43.23 Y212.642 E8.42828
G1 X43.514 Y213.199 E8.45102
G1 X44.106 Y214.014 E8.48762
G1 X44.549 Y214.456 E8.51036
G1 X45.363 Y215.048 E8.54696
G1 X45.921 Y215.332 E8.5697
G1 X46.878 Y215.644 E8.60629
G1 X48 Y215.781 E8.64736
G1 X172 Y215.781 E13.15393
G1 X173.122 Y215.644 E13.195
G1 X174.079 Y215.332 E13.23159
G1 X174.637 Y215.048 E13.25433
G1 X175.451 Y214.456 E13.29093
G1 X175.894 Y214.014 E13.31368
G1 X176.486 Y213.199 E13.35027
G1 X176.77 Y212.642 E13.37301
G1 X177.081 Y211.684 E13.40961
G1 X177.219 Y210.562 E13.45067
G1 X177.219 Y9.438 E20.76023
G1 X177.081 Y8.316 E20.80129
G1 X176.77 Y7.358 E20.83789
G1 X176.486 Y6.801 E20.86063
G1 X175.894 Y5.986 E20.89723
G1 X175.451 Y5.544 E20.91997
G1 X174.637 Y4.952 E20.95657
G1 X174.079 Y4.668 E20.97931
G1 X173.121 Y4.356 E21.0159
G1 X172.503 Y4.259 E21.03865
G1 X48 Y4.219 E25.56352
G1 X46.879 Y4.356 E25.60458
G1 X45.921 Y4.668 E25.64118
G1 X45.363 Y4.952 E25.66392
G1 X44.549 Y5.544 E25.70052
G1 X44.106 Y5.986 E25.72326
G1 X43.514 Y6.801 E25.75986
G1 X43.23 Y7.358 E25.7826
G1 X42.938 Y8.259 E25.81701
G92 E0
G1 E-0.7 F2100
;WIPE_START
G1 F7200
G1 X42.803 Y9.279 E-0.985
;WIPE_END
G1 E-1 F2100
; printing object christmas-tree-v2.stl id:0 copy 0
M486 S0
; acceleration to travel
M204 S1500
G1 X123.649 Y111.078 F9000
; decel to extrusion
M204 S500
G1 X133.526 Y123.515
; end travel
G1 E0 F2400
;TYPE:Internal perimeter
;WIDTH:0.564
G1 F1200
G1 X145.456 Y115.202 E0.63004
G1 X146.691 Y129.69 E1.26008
G1 X161.174 Y130.991 E1.89012
G1 X152.806 Y142.883 E2.52016
G1 X154.506 Y144.591 E2.62455
G1 X156.35 Y144.591 E2.70445
G1 X155.807 Y145.897 E2.76577
G1 X163.065 Y153.189 E3.21152
G1 X149.011 Y156.92 E3.84156
G1 X150.245 Y171.409 E4.4716
G1 X137.08 Y165.233 E5.10164
G1 X128.713 Y177.126 E5.73168
G1 X122.597 Y163.933 E6.36172
G1 X108.543 Y167.665 E6.99176
G1 X112.338 Y153.628 E7.6218
G1 X110.896 Y152.951 E7.69081
G1 X106.932 Y152.951 E7.8626
G1 X107.307 Y151.267 E7.93734
G1 X99.174 Y147.452 E8.32658
G1 X111.104 Y139.139 E8.95662
G1 X104.989 Y125.946 E9.58666
G1 X119.472 Y127.246 E10.2167
G1 X123.267 Y113.209 E10.84674
G1 X133.484 Y123.472 E11.47418
G92 E0
G1 E-0.7 F2100
;WIPE_START
G1 F7200
G1 X134.33 Y122.888 E-0.985
;WIPE_END
G1 E-1 F2100
; acceleration to travel
M204 S1500
G1 X154.73 Y103.142 F9000
; decel to extrusion
M204 S500
G1 X157.222 Y100.73
; end travel
G1 E0 F2400
G1 F1200
G1 X158.689 Y100.73 E0.06356
G1 X158.77 Y101.042 E0.07751
G1 X156.535 Y102.294 E0.18854
G1 X156.566 Y99.841 E0.29487
G1 X157.222 Y99.841 E0.32329
G1 X157.222 Y100.67 E0.35923
G92 E0
G1 E-0.7 F2100
;WIPE_START
G1 F7200
G1 X158.25 Y100.712 E-0.985
;WIPE_END
G1 E-1 F2100
; acceleration to travel
M204 S1500
G1 X156.541 Y99.015 F9000
; decel to extrusion
M204 S500
G1 X156.332 Y98.808
; end travel
G1 E0 F2400
G1 F1200
G1 X155.495 Y98.034 E0.04939
G1 X153.517 Y98.034 E0.13508
G1 X153.984 Y96.842 E0.19056
G1 X154.54 Y96.703 E0.21542
G1 X156.332 Y96.15 E0.29667
G1 X156.332 Y98.748 E0.40924
G92 E0
G1 E-0.7 F2100
;WIPE_START
G1 F7200
G1 X155.549 Y98.081 E-0.985
;WIPE_END
G1 E-1 F2100
; acceleration to travel
M204 S1500
G1 X157.504 Y95.465 F9000
; decel to extrusion
M204 S500
G1 X157.743 Y95.145
; end travel
G1 E0 F2400
G1 F1200
G1 X157.621 Y95.145 E0.00529
G1 X158.66 Y92.89 E0.11285
G1 X160.254 Y95.145 E0.23251
G1 X157.803 Y95.145 E0.33871
G92 E0
G1 E-0.7 F2100
;WIPE_START
G1 F7200
G1 X157.621 Y95.145 E-0.75043
G1 X157.975 Y94.376 E-0.985
;WIPE_END
G1 E-1 F2100
; acceleration to travel
M204 S1500
G1 X161.488 Y97.566 F9000
; decel to extrusion
M204 S500
G1 X161.918 Y97.956
; end travel
G1 E0 F2400
G1 F1200
G1 X161.918 Y95.715 E0.09707
G1 X163.782 Y95.935 E0.17839
G1 X163.103 Y96.844 E0.22753
G1 X163.485 Y97.605 E0.26442
G1 X162.724 Y97.352 E0.29917
G1 X162.203 Y98.05 E0.33689
G1 X161.975 Y97.974 E0.34733
G92 E0
G1 E-0.7 F2100
;WIPE_START
G1 F7200
G1 X161.949 Y96.946 E-0.985
;WIPE_END
G1 E-1 F2100
; acceleration to travel
M204 S1500
G1 X160.707 Y100.318 F9000
; decel to extrusion
M204 S500
G1 X160.555 Y100.73
; end travel
G1 E0 F2400
G1 F1200
G1 X161.028 Y100.73 E0.02049
G1 X161.028 Y99.841 E0.05903
G1 X162.088 Y99.841 E0.10497
G1 X162.468 Y101.747 E0.18921
G1 X160.498 Y101.079 E0.27937
G1 X160.545 Y100.789 E0.2921
G92 E0
G1 E-0.7 F2100
;WIPE_START
G1 F7200
G1 X161.028 Y100.73 E-0.83472
G1 X161.028 Y100.188 E-0.985
;WIPE_END
G1 E-1 F2100
; acceleration to travel
M204 S1500
G1 X157.551 Y78.022 F9000
; decel to extrusion
M204 S500
G1 X157.126 Y75.314
; end travel
G1 E0 F2400
G1 F1200
G1 X155.341 Y81.974 E0.29878
G1 X150.465 Y77.098 E0.59756
G1 X143.804 Y78.883 E0.89634
G1 X145.589 Y72.222 E1.19512
G1 X143.901 Y70.534 E1.29854
G1 X142.05 Y70.534 E1.37874
G1 X142.593 Y69.226 E1.44012
G1 X140.713 Y67.346 E1.55528
G1 X147.374 Y65.561 E1.85406
G1 X149.159 Y58.901 E2.15284
G1 X154.035 Y63.777 E2.45162
G1 X160.696 Y61.992 E2.7504
G1 X158.911 Y68.653 E3.04918
G1 X160.599 Y70.341 E3.1526
G1 X162.45 Y70.341 E3.2328
G1 X161.907 Y71.649 E3.29418
G1 X163.787 Y73.529 E3.40934
G1 X157.184 Y75.298 E3.70552
G92 E0
G1 E-0.7 F2100
;WIPE_START
G1 F7200
G1 X156.91 Y76.29 E-0.985
;WIPE_END
G1 E-1 F2100
; acceleration to travel
M204 S1500
G1 X141.309 Y42.39 F9000
; decel to extrusion
M204 S500
G1 X139.403 Y38.248
; end travel
G1 E0 F2400
G1 F1200
G1 X143.104 Y38.248 E0.16035
G1 X143.117 Y39.748 E0.22532
G1 X142.536 Y39.777 E0.25051
G1 X139.403 Y39.956 E0.38648
G1 X139.403 Y38.308 E0.45787
G92 E0
G1 E-0.7 F2100
;WIPE_START
G1 F7200
G1 X140.432 Y38.291 E-0.985
;WIPE_END
G1 E-1 F2100
; acceleration to travel
M204 S1500
G1 X144.4 Y33.092 F9000
; decel to extrusion
M204 S500
G1 X144.884 Y32.457
; end travel
G1 E0 F2400
G1 F1200
G1 X147.633 Y32.624 E0.11933
G1 X148.705 Y32.65 E0.16579
G1 X148.633 Y33.191 E0.18944
G1 X148.596 Y33.863 E0.21862
G1 X144.896 Y33.863 E0.37891
G1 X144.885 Y32.517 E0.43723
G92 E0
G1 E-0.7 F2100
;WIPE_START
G1 F7200
G1 X145.913 Y32.557 E-0.985
;WIPE_END
G1 E-1 F2100
; acceleration to travel
M204 S1500
G1 X91.1 Y24.955 F9000
; decel to extrusion
M204 S500
G1 X84.403 Y24.026
; end travel
G1 E0 F2400
G1 F1200
G1 X84.403 Y20.599 E0.14852
G1 X112.1 Y19.021 E1.3505
G1 X158.222 Y16.393 E3.35213
G1 X158.222 Y20.924 E3.54842
G1 X165.097 Y20.924 E3.8463
G1 X165.097 Y23.701 E3.96663
G1 X158.222 Y23.701 E4.26451
G1 X158.222 Y28.232 E4.4608
G1 X112.1 Y25.604 E6.46243
G1 X84.463 Y24.03 E7.66181
G92 E0
G1 E-0.7 F2100
;WIPE_START
G1 F7200
G1 X84.445 Y23.001 E-0.985
;WIPE_END
G1 E-1 F2100
; acceleration to travel
M204 S1500
G1 X124.793 Y125.76 F9000
; decel to extrusion
M204 S500
G1 X129.722 Y138.314
; end travel
G1 E0 F2400
G1 F1200
G1 X129.722 Y142.784 E0.1937
G1 X125.251 Y142.784 E0.38739
G1 X125.251 Y146.591 E0.55231
G1 X129.722 Y146.591 E0.746
G1 X129.722 Y151.061 E0.9397
G1 X133.528 Y151.061 E1.10462
G1 X133.528 Y146.591 E1.29831
G1 X137.999 Y146.591 E1.49201
G1 X137.999 Y142.784 E1.65692
G1 X133.528 Y142.784 E1.85062
G1 X133.528 Y138.314 E2.04432
G1 X129.782 Y138.314 E2.20663
G92 E0
G1 E-0.7 F2100
;WIPE_START
G1 F7200
G1 X129.768 Y139.342 E-0.985
;WIPE_END
G1 E-1 F2100
; acceleration to travel
M204 S1500
G1 X84.107 Y133.895 F9000
; decel to extrusion
M204 S500
G1 X78.528 Y133.229
; end travel
G1 E0 F2400
G1 F1200
G1 X74.722 Y133.229 E0.16491
G1 X74.722 Y135.909 E0.28103
G1 X72.042 Y135.909 E0.39715
G1 X72.042 Y139.716 E0.56207
G1 X74.722 Y139.716 E0.67818
G1 X74.722 Y142.396 E0.7943
G1 X78.528 Y142.396 E0.95922
G1 X78.528 Y139.716 E1.07534
G1 X81.208 Y139.716 E1.19146
G1 X81.208 Y135.909 E1.35637
G1 X78.528 Y135.909 E1.47249
G1 X78.528 Y133.289 E1.58601
G92 E0
G1 E-0.7 F2100
;WIPE_START
G1 F7200
G1 X77.5 Y133.273 E-0.985
;WIPE_END
G1 E-1 F2100
; acceleration to travel
M204 S1500
G1 X81.151 Y169.195 F9000
; decel to extrusion
M204 S500
G1 X81.597 Y173.584
; end travel
G1 E0 F2400
G1 F1200
G1 X81.597 Y177.159 E0.15491
G1 X78.022 Y177.159 E0.30982
G1 X78.022 Y180.966 E0.47473
G1 X81.597 Y180.966 E0.62964
G1 X81.597 Y184.541 E0.78455
G1 X85.403 Y184.541 E0.94946
G1 X85.403 Y180.966 E1.10437
G1 X88.978 Y180.966 E1.25928
G1 X88.978 Y177.159 E1.42419
G1 X85.403 Y177.159 E1.5791
G1 X85.403 Y173.584 E1.73401
G1 X81.657 Y173.584 E1.89632
G92 E0
G1 E-0.7 F2100
;WIPE_START
G1 F7200
G1 X81.64 Y174.613 E-0.985
;WIPE_END
G1 E-1 F2100
; acceleration to travel
M204 S1500
G1 X102.028 Y92.336 F9000
; decel to extrusion
M204 S500
G1 X104.519 Y82.284
; end travel
G1 E0 F2400
G1 F1200
G1 X99.153 Y82.284 E0.23249
G1 X99.153 Y76.919 E0.46497
G1 X95.347 Y76.919 E0.62989
G1 X95.347 Y82.284 E0.86237
G1 X90.597 Y82.284 E1.06818
G1 X90.597 Y86.091 E1.23309
G1 X95.347 Y86.091 E1.4389
G1 X95.347 Y91.456 E1.67139
G1 X99.153 Y91.456 E1.8363
G1 X99.153 Y86.091 E2.06879
G1 X104.519 Y86.091 E2.30127
G1 X104.519 Y82.344 E2.46358
G92 E0
G1 E-0.7 F2100
;WIPE_START
G1 F7200
G1 X103.49 Y82.333 E-0.985
;WIPE_END
G1 E-1 F2100
; acceleration to travel
M204 S1500
G1 X148.637 Y75.019 F9000
; decel to extrusion
M204 S500
G1 X154.153 Y74.125
; end travel
G1 E0 F2400
G1 F1200
G1 X154.153 Y72.341 E0.07733
G1 X155.938 Y72.341 E0.15466
G1 X155.938 Y68.534 E0.31957
G1 X154.153 Y68.534 E0.3969
G1 X154.153 Y66.75 E0.47424
G1 X150.347 Y66.75 E0.63915
G1 X150.347 Y68.534 E0.71648
G1 X148.562 Y68.534 E0.79381
G1 X148.562 Y72.341 E0.95872
G1 X150.347 Y72.341 E1.03605
G1 X150.347 Y74.125 E1.11338
G1 X154.093 Y74.125 E1.2757
G92 E0
G1 E-0.7 F2100
;WIPE_START
G1 F7200
G1 X154.128 Y73.097 E-0.985
;WIPE_END
G1 E-1 F2100
; acceleration to travel
M204 S1500
G1 X139.397 Y26.146 F9000
; decel to extrusion
M204 S500
G1 X137.597 Y20.409
; end travel
G1 E0 F2400
G1 F1200
G1 X137.597 Y24.216 E0.16491
G1 X150.403 Y24.216 E0.71978
G1 X150.403 Y20.409 E0.88469
G1 X137.657 Y20.409 E1.43696
G92 E0
G1 E-0.7 F2100
;WIPE_START
G1 F7200
G1 X137.641 Y21.438 E-0.985
;WIPE_END
G1 E-1 F2100
; acceleration to travel
M204 S1500
G1 X167.282 Y22.768 F9000
; decel to extrusion
M204 S500
G1 X170.903 Y22.93
; end travel
G1 E0 F2400
G1 F1200
G1 X170.903 Y13.366 E0.41439
G1 X170.772 Y12.537 E0.45078
G1 X170.358 Y11.724 E0.49029
G1 X169.713 Y11.08 E0.52979
G1 X168.901 Y10.666 E0.5693
G1 X168.071 Y10.534 E0.60569
G1 X51.929 Y10.534 E5.63789
G1 X51.099 Y10.666 E5.67428
G1 X50.287 Y11.08 E5.71379
G1 X49.642 Y11.724 E5.75329
G1 X49.228 Y12.537 E5.7928
G1 X49.097 Y13.366 E5.82919
G1 X49.097 Y206.634 E14.20306
G1 X49.228 Y207.463 E14.23945
G1 X49.642 Y208.275 E14.27895
G1 X50.287 Y208.92 E14.31846
G1 X51.099 Y209.334 E14.35796
G1 X51.929 Y209.466 E14.39435
G1 X168.071 Y209.466 E19.42655
G1 X168.901 Y209.334 E19.46294
G1 X169.713 Y208.92 E19.50245
G1 X170.358 Y208.275 E19.54196
G1 X170.772 Y207.463 E19.58146
G1 X170.903 Y206.634 E19.61785
G1 X170.903 Y22.99 E27.57473
G92 E0
G1 E-0.7 F2100
;WIPE_START
G1 F7200
G1 X170.903 Y21.962 E-0.985
;WIPE_END
G1 E-1 F2100
; acceleration to travel
M204 S1500
G1 X137.133 Y126.111 F9000
; decel to extrusion
M204 S500
G1 X133.007 Y138.835
; end travel
G1 E0 F2400
;TYPE:External perimeter
G1 F1200
G1 X130.243 Y138.835 E0.11976
G1 X130.243 Y143.305 E0.31346
G1 X125.773 Y143.305 E0.50715
G1 X125.773 Y146.07 E0.62691
G1 X130.243 Y146.07 E0.82061
G1 X130.243 Y150.54 E1.01431
G1 X133.007 Y150.54 E1.13406
G1 X133.007 Y146.07 E1.32776
G1 X137.477 Y146.07 E1.52146
G1 X137.477 Y143.305 E1.64122
G1 X133.007 Y143.305 E1.83492
G1 X133.007 Y138.895 E2.02601
;WIPE_START
G1 X133.007 Y138.435 F9000
;WIPE_END
G92 E0
G1 E-0.7 F2100
;WIPE_START
G1 F7200
G1 X131.981 Y138.504 E-0.985
;WIPE_END
G1 E-1 F2100
; acceleration to travel
M204 S1500
G1 X154.938 Y104.378 F9000
; decel to extrusion
M204 S500
G1 X157.743 Y100.209
; end travel
G1 E0 F2400
G1 F1200
G1 X160.507 Y100.209 E0.11976
G1 X160.507 Y99.32 E0.1583
G1 X161.397 Y99.32 E0.19684
G1 X161.397 Y96.555 E0.3166
G1 X160.507 Y96.555 E0.35514
G1 X160.507 Y95.666 E0.39368
G1 X157.743 Y95.666 E0.51344
G1 X157.743 Y96.555 E0.55199
G1 X156.853 Y96.555 E0.59053
G1 X156.853 Y99.32 E0.71029
G1 X157.743 Y99.32 E0.74883
G1 X157.743 Y100.149 E0.78477
;WIPE_START
G1 X157.743 Y100.609 F9000
;WIPE_END
G92 E0
G1 E-0.7 F2100
;WIPE_START
G1 F7200
G1 X158.769 Y100.54 E-0.985
;WIPE_END
G1 E-1 F2100
; acceleration to travel
M204 S1500
G1 X154.191 Y76.537 F9000
; decel to extrusion
M204 S500
G1 X153.632 Y73.604
; end travel
G1 E0 F2400
G1 F1200
G1 X153.632 Y71.82 E0.07733
G1 X155.417 Y71.82 E0.15466
G1 X155.417 Y69.055 E0.27442
G1 X153.632 Y69.055 E0.35175
G1 X153.632 Y67.271 E0.42908
G1 X150.868 Y67.271 E0.54884
G1 X150.868 Y69.055 E0.62617
G1 X149.083 Y69.055 E0.7035
G1 X149.083 Y71.82 E0.82326
G1 X150.868 Y71.82 E0.90059
G1 X150.868 Y73.604 E0.97792
G1 X153.572 Y73.604 E1.09508
;WIPE_START
G1 X154.032 Y73.604 F9000
;WIPE_END
G92 E0
G1 E-0.7 F2100
;WIPE_START
G1 F7200
G1 X153.903 Y72.584 E-0.985
;WIPE_END
G1 E-1 F2100
; acceleration to travel
M204 S1500
G1 X157.154 Y75.395 F9000
; decel to extrusion
M204 S500
G1 X157.552 Y75.739
; end travel
G1 E0 F2400
G1 F1200
G1 X155.611 Y82.981 E0.32485
G1 X150.309 Y77.679 E0.6497
G1 X143.068 Y79.62 E0.97455
G1 X145.008 Y72.378 E1.2994
G1 X143.686 Y71.055 E1.38044
G1 X122.652 Y71.055 E2.29176
G1 X122.056 Y72.934 E2.37715
G1 X137.484 Y79.674 E3.10658
G1 X123.933 Y89.664 E3.83601
G1 X128.425 Y97.32 E4.22058
G1 X153.237 Y97.319 E5.29565
G1 X153.428 Y96.833 E5.31829
G1 X153.121 Y96.552 E5.33631
G1 X153.442 Y96.402 E5.35167
G1 X153.905 Y96.325 E5.37198
G1 X154.4 Y96.201 E5.39413
G1 X156.919 Y95.424 E5.50832
G1 X158.564 Y91.852 E5.6787
G1 X160.834 Y95.063 E5.84906
G1 X164.739 Y95.523 E6.01942
G1 X163.713 Y96.898 E6.09373
G1 X163.925 Y97.32 E6.11416
G1 X170.382 Y97.32 E6.39394
G1 X170.382 Y71.055 E7.53191
G1 X162.717 Y71.055 E7.864
G1 X162.522 Y71.527 E7.88612
G1 X164.794 Y73.799 E8.02529
G1 X157.609 Y75.723 E8.34754
;WIPE_START
G1 X157.153 Y75.704 F9000
;WIPE_END
G92 E0
G1 E-0.7 F2100
;WIPE_START
G1 F7200
G1 X156.914 Y76.705 E-0.985
;WIPE_END
G1 E-1 F2100
; acceleration to travel
M204 S1500
G1 X109.759 Y82.141 F9000
; decel to extrusion
M204 S500
G1 X103.998 Y82.805
; end travel
G1 E0 F2400
G1 F1200
G1 X98.632 Y82.805 E0.23249
G1 X98.632 Y77.44 E0.46497
G1 X95.868 Y77.44 E0.58473
G1 X95.868 Y82.805 E0.81722
G1 X91.118 Y82.805 E1.02302
G1 X91.118 Y85.57 E1.14278
G1 X95.868 Y85.57 E1.34859
G1 X95.868 Y90.935 E1.58108
G1 X98.632 Y90.935 E1.70084
G1 X98.632 Y85.57 E1.93332
G1 X103.998 Y85.57 E2.16581
G1 X103.998 Y82.865 E2.28297
;WIPE_START
G1 X103.998 Y82.406 F9000
;WIPE_END
G92 E0
G1 E-0.7 F2100
;WIPE_START
G1 F7200
