; generated by SuperSlicer 2.4 on 2023-11-26 at 19:30:34 UTC

; 

; external perimeters extrusion width = 0.42mm
; perimeters extrusion width = 0.46mm
; infill extrusion width = 0.44mm
; solid infill extrusion width = 0.46mm
; top infill extrusion width = 0.44mm
; first layer extrusion width = 0.56mm

; object:{"name":"christmas-tree-v3","id":"christmas-tree-v3.stl id:0 copy 0","object_center":[110.000000,100.000000,0.000000],"boundingbox_center":[110.000000,100.000000,1.000000],"boundingbox_size":[118.000000,187.750000,2.000000]}
; Total objects to print: 1
M486 T1
; plater:{"center":[110.000000,100.000000,0.000000],"boundingbox_center":[110.000000,100.000000,1.000000],"boundingbox_size":[118.000000,187.750000,2.000000]}

;TYPE:Custom
G90 ; use absolute coordinates
M83 ; extruder relative mode
M140 S70 ; set final bed temp
M104 S150 ; set temporary nozzle temp to prevent oozing during homing and auto bed leveling
G4 S10 ; allow partial nozzle warmup
G28 ; home all axis
G92 X-5.0 Y-10.0 ; set home offsets from direct drive
G1 Z50 F240
G1 X2 Y10 F3000
M104 S220 ; set final nozzle temp
M190 S70 ; wait for bed temp to stabilize
M109 S220 ; wait for nozzle temp to stabilize
G1 Z0.28 F240
G92 E0
G1 Y140 E10 F1500 ; prime the nozzle
G1 X2.3 F5000
G92 E0
G1 Y10 E10 F1200 ; prime the nozzle
G92 E0
M107
G21 ; set units to millimeters
G90 ; use absolute coordinates
M82 ; use absolute distances for extrusion
G92 E0
; Filament gcode
;_TOOLCHANGE 0
M107
;LAYER_CHANGE
;Z:0.2
;HEIGHT:0.2
;BEFORE_LAYER_CHANGE
;0.2


G1 E-1 F2100
G1 Z0.2 F9000
;AFTER_LAYER_CHANGE
;0.2
G92 E0
M204 S500
G1 X47.919 Y7.003
G1 E1 F2400
;TYPE:Skirt
;WIDTH:0.48
G1 F1200
G1 X47.781 Y8.125 E1.04107
G1 X47.781 Y191.875 E7.71915
G1 X47.919 Y192.997 E7.76022
G1 X48.23 Y193.954 E7.79681
G1 X48.514 Y194.512 E7.81955
G1 X49.106 Y195.326 E7.85615
G1 X49.549 Y195.769 E7.8789
G1 X50.363 Y196.361 E7.91549
G1 X50.921 Y196.645 E7.93823
G1 X51.878 Y196.956 E7.97483
G1 X53 Y197.094 E8.0159
G1 X167 Y197.094 E12.15903
G1 X168.122 Y196.956 E12.2001
G1 X169.079 Y196.645 E12.23669
G1 X169.637 Y196.361 E12.25944
G1 X170.451 Y195.769 E12.29603
G1 X170.894 Y195.326 E12.31878
G1 X171.486 Y194.512 E12.35537
G1 X171.77 Y193.954 E12.37812
G1 X172.081 Y192.997 E12.41471
G1 X172.219 Y191.875 E12.45578
G1 X172.219 Y8.125 E19.13386
G1 X172.081 Y7.003 E19.17493
G1 X171.77 Y6.046 E19.21152
G1 X171.486 Y5.488 E19.23426
G1 X170.894 Y4.674 E19.27086
G1 X170.451 Y4.231 E19.2936
G1 X169.637 Y3.639 E19.3302
G1 X169.079 Y3.355 E19.35294
G1 X168.122 Y3.044 E19.38954
G1 X167.503 Y2.946 E19.41228
G1 X53 Y2.906 E23.57372
G1 X51.878 Y3.044 E23.61478
G1 X50.921 Y3.355 E23.65138
G1 X50.363 Y3.639 E23.67412
G1 X49.549 Y4.231 E23.71072
G1 X49.106 Y4.674 E23.73346
G1 X48.514 Y5.488 E23.77006
G1 X48.23 Y6.046 E23.7928
G1 X47.938 Y6.946 E23.82721
G92 E0
G1 E-0.7 F2100
;WIPE_START
G1 F7200
G1 X47.803 Y7.966 E-0.985
;WIPE_END
G1 E-1 F2100
; printing object christmas-tree-v3.stl id:0 copy 0
M486 S0
; acceleration to travel
M204 S1500
G1 X122.36 Y101.105 F9000
; decel to extrusion
M204 S500
G1 X131.469 Y112.484
; end travel
G1 E0 F2400
;TYPE:Internal perimeter
;WIDTH:0.564
G1 F1200
G1 X142.254 Y104.968 E0.56959
G1 X143.37 Y118.067 E1.13917
G1 X156.463 Y119.242 E1.70876
G1 X148.899 Y129.994 E2.27835
G1 X150.426 Y131.528 E2.37216
G1 X152.27 Y131.528 E2.45206
G1 X151.727 Y132.835 E2.51338
G1 X158.173 Y139.31 E2.90926
G1 X145.467 Y142.684 E3.47884
G1 X146.583 Y155.782 E4.04843
G1 X134.682 Y150.2 E4.61802
G1 X127.117 Y160.951 E5.18761
G1 X121.588 Y149.024 E5.75719
G1 X108.883 Y152.397 E6.32678
G1 X112.314 Y139.707 E6.89637
G1 X110.924 Y139.055 E6.96288
G1 X106.959 Y139.055 E7.13467
G1 X107.335 Y137.372 E7.20941
G1 X100.412 Y134.124 E7.5407
G1 X111.198 Y126.609 E8.11029
G1 X105.67 Y114.682 E8.67987
G1 X118.763 Y115.857 E9.24946
G1 X122.194 Y103.167 E9.81905
G1 X131.426 Y112.441 E10.38604
G92 E0
G1 E-0.7 F2100
;WIPE_START
G1 F7200
G1 X132.273 Y111.857 E-0.985
;WIPE_END
G1 E-1 F2100
; acceleration to travel
M204 S1500
G1 X151.496 Y94.004 F9000
; decel to extrusion
M204 S500
G1 X153.844 Y91.822
; end travel
G1 E0 F2400
G1 F1200
G1 X153.926 Y92.134 E0.01395
G1 X152.479 Y92.945 E0.0858
G1 X152.493 Y91.822 E0.13443
G1 X153.784 Y91.822 E0.19037
G92 E0
G1 E-0.7 F2100
;WIPE_START
G1 F7200
G1 X153.926 Y92.134 E-0.79479
G1 X153.327 Y92.47 E-0.985
;WIPE_END
G1 E-1 F2100
; acceleration to travel
M204 S1500
G1 X152.191 Y89.964 F9000
; decel to extrusion
M204 S500
G1 X152.053 Y89.658
; end travel
G1 E0 F2400
G1 F1200
G1 X151.581 Y89.222 E0.02784
G1 X149.599 Y89.222 E0.11369
G1 X149.974 Y88.264 E0.15827
G1 X150.176 Y88.214 E0.16725
G1 X152.053 Y87.635 E0.25236
G1 X152.053 Y89.598 E0.33741
G92 E0
G1 E-0.7 F2100
;WIPE_START
G1 F7200
G1 X151.581 Y89.222 E-0.86721
G1 X151.155 Y89.222 E-0.985
;WIPE_END
G1 E-1 F2100
; acceleration to travel
M204 S1500
G1 X153.286 Y86.732 F9000
; decel to extrusion
M204 S500
G1 X153.546 Y86.428
; end travel
G1 E0 F2400
G1 F1200
G1 X154.342 Y84.7 E0.08241
G1 X155.564 Y86.428 E0.17409
G1 X153.606 Y86.428 E0.25891
G92 E0
G1 E-0.7 F2100
;WIPE_START
G1 F7200
G1 X154.009 Y85.481 E-0.985
;WIPE_END
G1 E-1 F2100
; acceleration to travel
M204 S1500
G1 X157.073 Y88.831 F9000
; decel to extrusion
M204 S500
G1 X157.447 Y89.24
; end travel
G1 E0 F2400
G1 F1200
G1 X157.447 Y87.206 E0.08814
G1 X158.867 Y87.374 E0.15006
G1 X158.437 Y88.054 E0.18493
G1 X158.418 Y88.046 E0.18587
G1 X157.485 Y89.194 E0.24993
G92 E0
G1 E-0.7 F2100
;WIPE_START
G1 F7200
G1 X157.466 Y88.165 E-0.985
;WIPE_END
G1 E-1 F2100
; acceleration to travel
M204 S1500
G1 X156.742 Y90.716 F9000
; decel to extrusion
M204 S500
G1 X156.653 Y91.028
; end travel
G1 E0 F2400
G1 F1200
G1 X157.397 Y91.028 E0.03222
G1 X157.682 Y92.465 E0.09571
G1 X156.653 Y92.117 E0.14279
G1 X156.653 Y91.088 E0.18735
G92 E0
G1 E-0.7 F2100
;WIPE_START
G1 F7200
G1 X157.397 Y91.028 E-0.9067
G1 X157.452 Y91.305 E-0.985
;WIPE_END
G1 E-1 F2100
; acceleration to travel
M204 S1500
G1 X153.365 Y70.975 F9000
; decel to extrusion
M204 S500
G1 X152.866 Y68.491
; end travel
G1 E0 F2400
G1 F1200
G1 X151.268 Y74.454 E0.26751
G1 X146.902 Y70.089 E0.53502
G1 X140.938 Y71.687 E0.80253
G1 X142.536 Y65.723 E1.07004
G1 X141.035 Y64.222 E1.16202
G1 X139.184 Y64.222 E1.24222
G1 X139.726 Y62.913 E1.3036
G1 X138.171 Y61.357 E1.39893
G1 X144.134 Y59.759 E1.66645
G1 X145.732 Y53.796 E1.93396
G1 X150.098 Y58.161 E2.20147
G1 X156.062 Y56.563 E2.46898
G1 X154.464 Y62.527 E2.73649
G1 X156.288 Y64.351 E2.84828
G1 X157.069 Y64.028 E2.88489
G1 X157.816 Y64.028 E2.91725
G1 X157.274 Y65.337 E2.97863
G1 X158.829 Y66.893 E3.07397
G1 X152.924 Y68.475 E3.33888
G92 E0
G1 E-0.7 F2100
;WIPE_START
G1 F7200
G1 X152.649 Y69.466 E-0.985
;WIPE_END
G1 E-1 F2100
; acceleration to travel
M204 S1500
G1 X138.617 Y38.621 F9000
; decel to extrusion
M204 S500
G1 X136.903 Y34.853
; end travel
G1 E0 F2400
G1 F1200
G1 X140.111 Y34.853 E0.13897
G1 X140.126 Y35.506 E0.16726
G1 X140.203 Y36.223 E0.19853
G1 X139.012 Y36.277 E0.25018
G1 X136.903 Y36.395 E0.34172
G1 X136.903 Y34.913 E0.40593
G92 E0
G1 E-0.7 F2100
;WIPE_START
G1 F7200
G1 X137.931 Y34.894 E-0.985
;WIPE_END
G1 E-1 F2100
; acceleration to travel
M204 S1500
G1 X141.384 Y30.175 F9000
; decel to extrusion
M204 S500
G1 X141.806 Y29.599
; end travel
G1 E0 F2400
G1 F1200
G1 X142.127 Y29.631 E0.01398
G1 X143.634 Y29.719 E0.0794
G1 X144.661 Y29.763 E0.12392
G1 X145.195 Y29.747 E0.1471
G1 X145.133 Y30.212 E0.16744
G1 X145.096 Y30.884 E0.19662
G1 X141.889 Y30.884 E0.33554
G1 X141.874 Y30.232 E0.36383
G1 X141.812 Y29.658 E0.38882
G92 E0
G1 E-0.7 F2100
;WIPE_START
G1 F7200
G1 X142.127 Y29.631 E-0.78751
G1 X142.838 Y29.673 E-0.985
;WIPE_END
G1 E-1 F2100
; acceleration to travel
M204 S1500
G1 X92.993 Y22.619 F9000
; decel to extrusion
M204 S500
G1 X86.903 Y21.758
; end travel
G1 E0 F2400
G1 F1200
G1 X86.903 Y18.829 E0.12691
G1 X112.1 Y17.418 E1.22034
G1 X153.847 Y15.08 E3.03199
G1 X153.847 Y19.195 E3.21027
G1 X160.097 Y19.195 E3.48107
G1 X160.097 Y21.555 E3.58335
G1 X153.847 Y21.555 E3.85414
G1 X153.847 Y25.67 E4.03243
G1 X112.1 Y23.332 E5.84407
G1 X86.903 Y21.921 E6.93751
G1 X86.903 Y21.818 E6.942
G92 E0
G1 E-0.7 F2100
;WIPE_START
G1 F7200
G1 X86.903 Y20.789 E-0.985
;WIPE_END
G1 E-1 F2100
; acceleration to travel
M204 S1500
G1 X123.389 Y114.303 F9000
; decel to extrusion
M204 S500
G1 X127.847 Y125.728
; end travel
G1 E0 F2400
G1 F1200
G1 X127.847 Y129.722 E0.17307
G1 X123.853 Y129.722 E0.34614
G1 X123.853 Y133.528 E0.51105
G1 X127.847 Y133.528 E0.68412
G1 X127.847 Y137.522 E0.85719
G1 X131.653 Y137.522 E1.0221
G1 X131.653 Y133.528 E1.19517
G1 X135.647 Y133.528 E1.36824
G1 X135.647 Y129.722 E1.53315
G1 X131.653 Y129.722 E1.70622
G1 X131.653 Y125.728 E1.87929
G1 X127.907 Y125.728 E2.04161
G92 E0
G1 E-0.7 F2100
;WIPE_START
G1 F7200
G1 X127.891 Y126.756 E-0.985
;WIPE_END
G1 E-1 F2100
; acceleration to travel
M204 S1500
G1 X86.687 Y121.696 F9000
; decel to extrusion
M204 S500
G1 X81.653 Y121.078
; end travel
G1 E0 F2400
G1 F1200
G1 X77.847 Y121.078 E0.16491
G1 X77.847 Y123.472 E0.26866
G1 X75.453 Y123.472 E0.3724
G1 X75.453 Y127.278 E0.53731
G1 X77.847 Y127.278 E0.64106
G1 X77.847 Y129.672 E0.7448
G1 X81.653 Y129.672 E0.90972
G1 X81.653 Y127.278 E1.01346
G1 X84.047 Y127.278 E1.11721
G1 X84.047 Y123.472 E1.28212
G1 X81.653 Y123.472 E1.38586
G1 X81.653 Y121.138 E1.48701
G92 E0
G1 E-0.7 F2100
;WIPE_START
G1 F7200
G1 X80.625 Y121.121 E-0.985
;WIPE_END
G1 E-1 F2100
; acceleration to travel
M204 S1500
G1 X83.719 Y153.787 F9000
; decel to extrusion
M204 S500
G1 X84.097 Y157.778
; end travel
G1 E0 F2400
G1 F1200
G1 X84.097 Y160.972 E0.13841
G1 X80.903 Y160.972 E0.27681
G1 X80.903 Y164.778 E0.44173
G1 X84.097 Y164.778 E0.58013
G1 X84.097 Y167.972 E0.71854
G1 X87.903 Y167.972 E0.88345
G1 X87.903 Y164.778 E1.02186
G1 X91.097 Y164.778 E1.16027
G1 X91.097 Y160.972 E1.32518
G1 X87.903 Y160.972 E1.46359
G1 X87.903 Y157.778 E1.60199
G1 X84.157 Y157.778 E1.76431
G92 E0
G1 E-0.7 F2100
;WIPE_START
G1 F7200
G1 X84.138 Y158.806 E-0.985
;WIPE_END
G1 E-1 F2100
; acceleration to travel
M204 S1500
G1 X102.905 Y83.876 F9000
; decel to extrusion
M204 S500
G1 X105.197 Y74.722
; end travel
G1 E0 F2400
G1 F1200
G1 X100.403 Y74.722 E0.20773
G1 X100.403 Y69.928 E0.41546
G1 X96.597 Y69.928 E0.58038
G1 X96.597 Y74.722 E0.78811
G1 X93.097 Y74.722 E0.93976
G1 X93.097 Y78.528 E1.10467
G1 X96.597 Y78.528 E1.25632
G1 X96.597 Y83.322 E1.46405
G1 X100.403 Y83.322 E1.62896
G1 X100.403 Y78.528 E1.83669
G1 X105.197 Y78.528 E2.04442
G1 X105.197 Y74.782 E2.20674
G92 E0
G1 E-0.7 F2100
;WIPE_START
G1 F7200
G1 X104.169 Y74.769 E-0.985
;WIPE_END
G1 E-1 F2100
; acceleration to travel
M204 S1500
G1 X145.37 Y68.401 F9000
; decel to extrusion
M204 S500
G1 X150.403 Y67.622
; end travel
G1 E0 F2400
G1 F1200
G1 X150.403 Y66.028 E0.06908
G1 X151.997 Y66.028 E0.13816
G1 X151.997 Y62.222 E0.30308
G1 X150.403 Y62.222 E0.37216
G1 X150.403 Y60.628 E0.44124
G1 X146.597 Y60.628 E0.60615
G1 X146.597 Y62.222 E0.67524
G1 X145.003 Y62.222 E0.74432
G1 X145.003 Y66.028 E0.90923
G1 X146.597 Y66.028 E0.97831
G1 X146.597 Y67.622 E1.0474
G1 X150.343 Y67.622 E1.20971
G92 E0
G1 E-0.7 F2100
;WIPE_START
G1 F7200
G1 X150.382 Y66.595 E-0.985
;WIPE_END
G1 E-1 F2100
; acceleration to travel
M204 S1500
G1 X136.761 Y23.711 F9000
; decel to extrusion
M204 S500
G1 X135.097 Y18.472
; end travel
G1 E0 F2400
G1 F1200
G1 X135.097 Y22.278 E0.16491
G1 X146.903 Y22.278 E0.67645
G1 X146.903 Y18.472 E0.84136
G1 X135.157 Y18.472 E1.3503
G92 E0
G1 E-0.7 F2100
;WIPE_START
G1 F7200
G1 X135.141 Y19.5 E-0.985
;WIPE_END
G1 E-1 F2100
; acceleration to travel
M204 S1500
G1 X162.554 Y20.83 F9000
; decel to extrusion
M204 S500
G1 X165.903 Y20.993
; end travel
G1 E0 F2400
G1 F1200
G1 X165.903 Y12.054 E0.38731
G1 X165.772 Y11.224 E0.4237
G1 X165.358 Y10.412 E0.46321
G1 X164.713 Y9.767 E0.50271
G1 X163.901 Y9.353 E0.54222
G1 X163.071 Y9.222 E0.57861
G1 X56.929 Y9.222 E5.17753
G1 X56.099 Y9.353 E5.21392
G1 X55.287 Y9.767 E5.25343
G1 X54.642 Y10.412 E5.29293
G1 X54.228 Y11.224 E5.33244
G1 X54.097 Y12.054 E5.36883
G1 X54.097 Y27.255 E6.02745
G1 X54.132 Y28.285 E6.0721
G1 X54.264 Y29.252 E6.1144
G1 X54.133 Y30.182 E6.15509
G1 X54.102 Y30.71 E6.178
G1 X54.097 Y31.682 E6.22013
G1 X54.102 Y35.026 E6.36502
G1 X54.133 Y35.556 E6.388
G1 X54.264 Y36.48 E6.42847
G1 X54.133 Y37.457 E6.47117
G1 X54.102 Y38.008 E6.49506
G1 X54.097 Y39.029 E6.53931
G1 X54.097 Y187.946 E12.99158
G1 X54.228 Y188.776 E13.02797
G1 X54.642 Y189.588 E13.06747
G1 X55.287 Y190.233 E13.10698
G1 X56.099 Y190.647 E13.14649
G1 X56.929 Y190.778 E13.18288
G1 X163.071 Y190.778 E17.7818
G1 X163.901 Y190.647 E17.81819
G1 X164.713 Y190.233 E17.85769
G1 X165.358 Y189.588 E17.8972
G1 X165.772 Y188.776 E17.93671
G1 X165.903 Y187.946 E17.97309
G1 X165.903 Y21.053 E25.20423
G92 E0
G1 E-0.7 F2100
;WIPE_START
G1 F7200
G1 X165.903 Y20.024 E-0.985
;WIPE_END
G1 E-1 F2100
; acceleration to travel
M204 S1500
G1 X134.918 Y114.684 F9000
; decel to extrusion
M204 S500
G1 X131.132 Y126.249
; end travel
G1 E0 F2400
;TYPE:External perimeter
G1 F1200
G1 X128.368 Y126.249 E0.11976
G1 X128.368 Y130.243 E0.29283
G1 X124.374 Y130.243 E0.4659
G1 X124.374 Y133.007 E0.58566
G1 X128.368 Y133.007 E0.75872
G1 X128.368 Y137.001 E0.93179
G1 X131.132 Y137.001 E1.05155
G1 X131.132 Y133.007 E1.22462
G1 X135.126 Y133.007 E1.39769
G1 X135.126 Y130.243 E1.51745
G1 X131.132 Y130.243 E1.69052
G1 X131.132 Y126.309 E1.86099
;WIPE_START
G1 X131.132 Y125.849 F9000
;WIPE_END
G92 E0
G1 E-0.7 F2100
;WIPE_START
G1 F7200
G1 X130.106 Y125.918 E-0.985
;WIPE_END
G1 E-1 F2100
; acceleration to travel
M204 S1500
G1 X150.835 Y95.07 F9000
; decel to extrusion
M204 S500
G1 X153.368 Y91.301
; end travel
G1 E0 F2400
G1 F1200
G1 X156.132 Y91.301 E0.11976
G1 X156.132 Y90.507 E0.15418
G1 X156.926 Y90.507 E0.1886
G1 X156.926 Y87.743 E0.30836
G1 X156.132 Y87.743 E0.34278
G1 X156.132 Y86.949 E0.3772
G1 X153.368 Y86.949 E0.49695
G1 X153.368 Y87.743 E0.53137
G1 X152.574 Y87.743 E0.56579
G1 X152.574 Y90.507 E0.68555
G1 X153.368 Y90.507 E0.71997
G1 X153.368 Y91.241 E0.75179
;WIPE_START
G1 X153.368 Y91.701 F9000
;WIPE_END
G92 E0
G1 E-0.7 F2100
;WIPE_START
G1 F7200
G1 X154.394 Y91.632 E-0.985
;WIPE_END
G1 E-1 F2100
; acceleration to travel
M204 S1500
G1 X150.373 Y69.772 F9000
; decel to extrusion
M204 S500
G1 X149.882 Y67.101
; end travel
G1 E0 F2400
G1 F1200
G1 X149.882 Y65.507 E0.06908
G1 X151.476 Y65.507 E0.13816
G1 X151.476 Y62.743 E0.25792
G1 X149.882 Y62.743 E0.327
G1 X149.882 Y61.149 E0.39609
G1 X147.118 Y61.149 E0.51585
G1 X147.118 Y62.743 E0.58493
G1 X145.524 Y62.743 E0.65401
G1 X145.524 Y65.507 E0.77377
G1 X147.118 Y65.507 E0.84285
G1 X147.118 Y67.101 E0.91193
G1 X149.822 Y67.101 E1.02909
;WIPE_START
G1 X150.282 Y67.101 F9000
;WIPE_END
G92 E0
G1 E-0.7 F2100
;WIPE_START
G1 F7200
G1 X150.136 Y66.083 E-0.985
;WIPE_END
G1 E-1 F2100
; acceleration to travel
M204 S1500
G1 X152.948 Y68.608 F9000
; decel to extrusion
M204 S500
G1 X153.291 Y68.916
; end travel
G1 E0 F2400
G1 F1200
G1 X151.538 Y75.461 E0.29358
G1 X146.746 Y70.67 E0.58716
G1 X140.201 Y72.424 E0.88074
G1 X141.955 Y65.879 E1.17432
G1 X140.819 Y64.743 E1.24391
G1 X121.539 Y64.743 E2.0793
G1 X121.009 Y66.414 E2.15526
G1 X135.007 Y72.529 E2.81712
G1 X122.712 Y81.594 E3.47899
G1 X126.768 Y88.507 E3.82624
G1 X149.321 Y88.504 E4.80342
G1 X149.512 Y88.014 E4.82622
G1 X149.332 Y87.861 E4.83644
G1 X149.582 Y87.823 E4.84738
G1 X150.037 Y87.712 E4.86767
G1 X152.769 Y86.868 E4.99158
G1 X154.246 Y83.662 E5.14453
G1 X156.284 Y86.544 E5.29746
G1 X159.799 Y86.959 E5.45078
G1 X159.371 Y87.551 E5.48245
G1 X159.022 Y88.105 E5.51079
G1 X159.19 Y88.44 E5.52706
G1 X160.322 Y88.504 E5.57617
G1 X165.382 Y88.507 E5.79543
G1 X165.382 Y64.743 E6.82508
G1 X158.084 Y64.743 E7.1413
G1 X157.888 Y65.215 E7.16342
G1 X159.836 Y67.162 E7.28278
G1 X153.349 Y68.901 E7.57376
;WIPE_START
G1 X152.893 Y68.881 F9000
;WIPE_END
G92 E0
G1 E-0.7 F2100
;WIPE_START
G1 F7200
G1 X152.657 Y69.882 E-0.985
;WIPE_END
G1 E-1 F2100
; acceleration to travel
M204 S1500
G1 X109.9 Y74.659 F9000
; decel to extrusion
M204 S500
G1 X104.676 Y75.243
; end travel
G1 E0 F2400
G1 F1200
